src/svg/programmatic_illustration.svg

<svg width="279" height="269" viewBox="0 0 279 269" fill="none" xmlns="http://www.w3.org/2000/svg">
<g opacity="0.9">
<path opacity="0.9" d="M251.032 43.9373H82.8899C79.5762 43.9373 76.8899 46.6236 76.8899 49.9373V163.157C76.8899 166.471 79.5762 169.157 82.8899 169.157H251.032C254.346 169.157 257.032 166.471 257.032 163.157V49.9373C257.032 46.6236 254.346 43.9373 251.032 43.9373Z" fill="#4E5A71"/>
<path opacity="0.9" d="M248.638 56.02H85.2837C83.0746 56.02 81.2837 57.8109 81.2837 60.02V153.075C81.2837 155.284 83.0746 157.075 85.2837 157.075H248.638C250.847 157.075 252.638 155.284 252.638 153.075V60.02C252.638 57.8109 250.847 56.02 248.638 56.02Z" fill="#8194A1"/>
<path d="M248.638 56.02H85.2837C83.0746 56.02 81.2837 57.8109 81.2837 60.02V153.075C81.2837 155.284 83.0746 157.075 85.2837 157.075H248.638C250.847 157.075 252.638 155.284 252.638 153.075V60.02C252.638 57.8109 250.847 56.02 248.638 56.02Z" stroke="#D2DCE3"/>
<path d="M97.294 120.916V114.079L107.238 110.802L114.866 108.147V107.921L107.238 105.265L97.294 101.988V95.1516L123.284 105.152V110.915L97.294 120.916ZM124.201 134.702V130.012H151.095V134.702H124.201Z" fill="#E4E8EB"/>
<path opacity="0.9" fill-rule="evenodd" clip-rule="evenodd" d="M188.929 169.158H144.992V179.044H131.614C130.51 179.044 129.614 179.939 129.614 181.044V183.634C129.614 184.739 130.51 185.634 131.614 185.634H202.307C203.412 185.634 204.307 184.739 204.307 183.634V181.044C204.307 179.939 203.412 179.044 202.307 179.044H188.929V169.158Z" fill="#4E5A71"/>
</g>
<g opacity="0.9">
<path opacity="0.9" d="M62.9057 76.8897H13.9844C12.3276 76.8897 10.9844 78.2329 10.9844 79.8897V210.095C10.9844 211.752 12.3276 213.095 13.9844 213.095H62.9057C64.5626 213.095 65.9057 211.752 65.9057 210.095V79.8897C65.9057 78.2329 64.5626 76.8897 62.9057 76.8897Z" fill="#4E5A71"/>
<path d="M58.4136 87.874H18.4766C17.372 87.874 16.4766 88.7695 16.4766 89.874V92.4646C16.4766 93.5691 17.372 94.4646 18.4766 94.4646H58.4136C59.5182 94.4646 60.4136 93.5691 60.4136 92.4646V89.874C60.4136 88.7695 59.5182 87.874 58.4136 87.874Z" fill="#E4E8EB"/>
<path d="M58.4136 97.7598H18.4766C17.372 97.7598 16.4766 98.6553 16.4766 99.7598V100.154C16.4766 101.258 17.372 102.154 18.4766 102.154H58.4136C59.5182 102.154 60.4136 101.258 60.4136 100.154V99.7598C60.4136 98.6553 59.5182 97.7598 58.4136 97.7598Z" fill="#E4E8EB"/>
<path d="M58.4136 112.039H18.4766C17.372 112.039 16.4766 112.934 16.4766 114.039V139.697C16.4766 140.801 17.372 141.697 18.4766 141.697H58.4136C59.5182 141.697 60.4136 140.801 60.4136 139.697V114.039C60.4136 112.934 59.5182 112.039 58.4136 112.039Z" fill="#E4E8EB"/>
<path d="M29.7562 197.716H22.9688C22.4165 197.716 21.9688 198.164 21.9688 198.716V205.503C21.9688 206.056 22.4165 206.503 22.9688 206.503H29.7562C30.3085 206.503 30.7562 206.056 30.7562 205.503V198.716C30.7562 198.164 30.3085 197.716 29.7562 197.716Z" fill="#E4E8EB"/>
<path opacity="0.9" d="M56.1184 132.909H51.5278C50.9755 132.909 50.5278 133.357 50.5278 133.909V138.5C50.5278 139.052 50.9755 139.5 51.5278 139.5H56.1184C56.6706 139.5 57.1184 139.052 57.1184 138.5V133.909C57.1184 133.357 56.6706 132.909 56.1184 132.909Z" fill="#4E5A71"/>
<path d="M41.8389 197.716H35.0515C34.4992 197.716 34.0515 198.164 34.0515 198.716V205.503C34.0515 206.056 34.4992 206.503 35.0515 206.503H41.8389C42.3912 206.503 42.8389 206.056 42.8389 205.503V198.716C42.8389 198.164 42.3912 197.716 41.8389 197.716Z" fill="#E4E8EB"/>
<path opacity="0.9" d="M56.1184 115.335H51.5278C50.9755 115.335 50.5278 115.783 50.5278 116.335V120.926C50.5278 121.478 50.9755 121.926 51.5278 121.926H56.1184C56.6706 121.926 57.1184 121.478 57.1184 120.926V116.335C57.1184 115.783 56.6706 115.335 56.1184 115.335Z" fill="#4E5A71"/>
<path d="M53.9215 197.716H47.1341C46.5818 197.716 46.1341 198.164 46.1341 198.716V205.503C46.1341 206.056 46.5818 206.503 47.1341 206.503H53.9215C54.4738 206.503 54.9215 206.056 54.9215 205.503V198.716C54.9215 198.164 54.4738 197.716 53.9215 197.716Z" fill="#E4E8EB"/>
<path opacity="0.9" d="M56.1184 124.122H51.5278C50.9755 124.122 50.5278 124.57 50.5278 125.122V129.713C50.5278 130.265 50.9755 130.713 51.5278 130.713H56.1184C56.6706 130.713 57.1184 130.265 57.1184 129.713V125.122C57.1184 124.57 56.6706 124.122 56.1184 124.122Z" fill="#4E5A71"/>
<path d="M38.4451 176.847C42.085 176.847 45.0357 173.896 45.0357 170.256C45.0357 166.616 42.085 163.665 38.4451 163.665C34.8052 163.665 31.8546 166.616 31.8546 170.256C31.8546 173.896 34.8052 176.847 38.4451 176.847Z" fill="#E4E8EB"/>
</g>
<g opacity="0.6">
<path d="M231.063 191.126H74.2993C72.0902 191.126 70.2993 192.917 70.2993 195.126V231.063C70.2993 233.272 72.0902 235.063 74.2993 235.063H231.063C233.272 235.063 235.063 233.272 235.063 231.063V195.126C235.063 192.917 233.272 191.126 231.063 191.126Z" fill="#4E5A71"/>
<path d="M94.6614 196.618H89.874C88.7695 196.618 87.874 197.513 87.874 198.618V203.405C87.874 204.51 88.7695 205.405 89.874 205.405H94.6614C95.766 205.405 96.6614 204.51 96.6614 203.405V198.618C96.6614 197.513 95.766 196.618 94.6614 196.618Z" fill="#E4E8EB"/>
<path d="M94.6614 208.701H89.874C88.7695 208.701 87.874 209.596 87.874 210.701V215.488C87.874 216.593 88.7695 217.488 89.874 217.488H94.6614C95.766 217.488 96.6614 216.593 96.6614 215.488V210.701C96.6614 209.596 95.766 208.701 94.6614 208.701Z" fill="#E4E8EB"/>
<path d="M94.6614 220.784H89.874C88.7695 220.784 87.874 221.679 87.874 222.784V227.571C87.874 228.676 88.7695 229.571 89.874 229.571H94.6614C95.766 229.571 96.6614 228.676 96.6614 227.571V222.784C96.6614 221.679 95.766 220.784 94.6614 220.784Z" fill="#E4E8EB"/>
<path d="M83.6772 196.618H78.8898C77.7853 196.618 76.8898 197.513 76.8898 198.618V203.405C76.8898 204.51 77.7853 205.405 78.8898 205.405H83.6772C84.7818 205.405 85.6772 204.51 85.6772 203.405V198.618C85.6772 197.513 84.7818 196.618 83.6772 196.618Z" fill="#E4E8EB"/>
<path d="M83.6772 208.701H78.8898C77.7853 208.701 76.8898 209.596 76.8898 210.701V215.488C76.8898 216.593 77.7853 217.488 78.8898 217.488H83.6772C84.7818 217.488 85.6772 216.593 85.6772 215.488V210.701C85.6772 209.596 84.7818 208.701 83.6772 208.701Z" fill="#E4E8EB"/>
<path d="M160.567 196.618H155.78C154.675 196.618 153.78 197.513 153.78 198.618V203.405C153.78 204.51 154.675 205.405 155.78 205.405H160.567C161.672 205.405 162.567 204.51 162.567 203.405V198.618C162.567 197.513 161.672 196.618 160.567 196.618Z" fill="#E4E8EB"/>
<path d="M160.567 208.701H155.78C154.675 208.701 153.78 209.596 153.78 210.701V215.488C153.78 216.593 154.675 217.488 155.78 217.488H160.567C161.672 217.488 162.567 216.593 162.567 215.488V210.701C162.567 209.596 161.672 208.701 160.567 208.701Z" fill="#E4E8EB"/>
<path d="M127.614 196.618H122.827C121.722 196.618 120.827 197.513 120.827 198.618V203.405C120.827 204.51 121.722 205.405 122.827 205.405H127.614C128.719 205.405 129.614 204.51 129.614 203.405V198.618C129.614 197.513 128.719 196.618 127.614 196.618Z" fill="#E4E8EB"/>
<path d="M127.614 208.701H122.827C121.722 208.701 120.827 209.596 120.827 210.701V215.488C120.827 216.593 121.722 217.488 122.827 217.488H127.614C128.719 217.488 129.614 216.593 129.614 215.488V210.701C129.614 209.596 128.719 208.701 127.614 208.701Z" fill="#E4E8EB"/>
<path d="M193.519 196.618H188.732C187.627 196.618 186.732 197.513 186.732 198.618V203.405C186.732 204.51 187.627 205.405 188.732 205.405H193.519C194.624 205.405 195.519 204.51 195.519 203.405V198.618C195.519 197.513 194.624 196.618 193.519 196.618Z" fill="#E4E8EB"/>
<path d="M193.519 208.701H188.732C187.627 208.701 186.732 209.596 186.732 210.701V215.488C186.732 216.593 187.627 217.488 188.732 217.488H193.519C194.624 217.488 195.519 216.593 195.519 215.488V210.701C195.519 209.596 194.624 208.701 193.519 208.701Z" fill="#E4E8EB"/>
<path d="M105.646 196.618H100.858C99.7538 196.618 98.8583 197.513 98.8583 198.618V203.405C98.8583 204.51 99.7538 205.405 100.858 205.405H105.646C106.75 205.405 107.646 204.51 107.646 203.405V198.618C107.646 197.513 106.75 196.618 105.646 196.618Z" fill="#E4E8EB"/>
<path d="M105.646 208.701H100.858C99.7538 208.701 98.8583 209.596 98.8583 210.701V215.488C98.8583 216.593 99.7538 217.488 100.858 217.488H105.646C106.75 217.488 107.646 216.593 107.646 215.488V210.701C107.646 209.596 106.75 208.701 105.646 208.701Z" fill="#E4E8EB"/>
<path d="M204.504 220.784H100.858C99.7538 220.784 98.8583 221.679 98.8583 222.784V227.571C98.8583 228.676 99.7538 229.571 100.858 229.571H204.504C205.609 229.571 206.504 228.676 206.504 227.571V222.784C206.504 221.679 205.609 220.784 204.504 220.784Z" fill="#E4E8EB"/>
<path d="M171.551 196.618H166.764C165.659 196.618 164.764 197.513 164.764 198.618V203.405C164.764 204.51 165.659 205.405 166.764 205.405H171.551C172.656 205.405 173.551 204.51 173.551 203.405V198.618C173.551 197.513 172.656 196.618 171.551 196.618Z" fill="#E4E8EB"/>
<path d="M171.551 208.701H166.764C165.659 208.701 164.764 209.596 164.764 210.701V215.488C164.764 216.593 165.659 217.488 166.764 217.488H171.551C172.656 217.488 173.551 216.593 173.551 215.488V210.701C173.551 209.596 172.656 208.701 171.551 208.701Z" fill="#E4E8EB"/>
<path d="M138.598 196.618H133.811C132.706 196.618 131.811 197.513 131.811 198.618V203.405C131.811 204.51 132.706 205.405 133.811 205.405H138.598C139.703 205.405 140.598 204.51 140.598 203.405V198.618C140.598 197.513 139.703 196.618 138.598 196.618Z" fill="#E4E8EB"/>
<path d="M138.598 208.701H133.811C132.706 208.701 131.811 209.596 131.811 210.701V215.488C131.811 216.593 132.706 217.488 133.811 217.488H138.598C139.703 217.488 140.598 216.593 140.598 215.488V210.701C140.598 209.596 139.703 208.701 138.598 208.701Z" fill="#E4E8EB"/>
<path d="M204.504 196.618H199.717C198.612 196.618 197.717 197.513 197.717 198.618V203.405C197.717 204.51 198.612 205.405 199.717 205.405H204.504C205.609 205.405 206.504 204.51 206.504 203.405V198.618C206.504 197.513 205.609 196.618 204.504 196.618Z" fill="#E4E8EB"/>
<path d="M204.504 208.701H199.717C198.612 208.701 197.717 209.596 197.717 210.701V215.488C197.717 216.593 198.612 217.488 199.717 217.488H204.504C205.609 217.488 206.504 216.593 206.504 215.488V210.701C206.504 209.596 205.609 208.701 204.504 208.701Z" fill="#E4E8EB"/>
<path d="M116.63 196.618H111.843C110.738 196.618 109.843 197.513 109.843 198.618V203.405C109.843 204.51 110.738 205.405 111.843 205.405H116.63C117.735 205.405 118.63 204.51 118.63 203.405V198.618C118.63 197.513 117.735 196.618 116.63 196.618Z" fill="#E4E8EB"/>
<path d="M116.63 208.701H111.843C110.738 208.701 109.843 209.596 109.843 210.701V215.488C109.843 216.593 110.738 217.488 111.843 217.488H116.63C117.735 217.488 118.63 216.593 118.63 215.488V210.701C118.63 209.596 117.735 208.701 116.63 208.701Z" fill="#E4E8EB"/>
<path d="M182.535 196.618H177.748C176.643 196.618 175.748 197.513 175.748 198.618V203.405C175.748 204.51 176.643 205.405 177.748 205.405H182.535C183.64 205.405 184.535 204.51 184.535 203.405V198.618C184.535 197.513 183.64 196.618 182.535 196.618Z" fill="#E4E8EB"/>
<path d="M182.535 208.701H177.748C176.643 208.701 175.748 209.596 175.748 210.701V215.488C175.748 216.593 176.643 217.488 177.748 217.488H182.535C183.64 217.488 184.535 216.593 184.535 215.488V210.701C184.535 209.596 183.64 208.701 182.535 208.701Z" fill="#E4E8EB"/>
<path d="M149.582 196.618H144.795C143.69 196.618 142.795 197.513 142.795 198.618V203.405C142.795 204.51 143.69 205.405 144.795 205.405H149.582C150.687 205.405 151.582 204.51 151.582 203.405V198.618C151.582 197.513 150.687 196.618 149.582 196.618Z" fill="#E4E8EB"/>
<path d="M149.582 208.701H144.795C143.69 208.701 142.795 209.596 142.795 210.701V215.488C142.795 216.593 143.69 217.488 144.795 217.488H149.582C150.687 217.488 151.582 216.593 151.582 215.488V210.701C151.582 209.596 150.687 208.701 149.582 208.701Z" fill="#E4E8EB"/>
<path d="M215.488 196.618H210.701C209.596 196.618 208.701 197.513 208.701 198.618V203.405C208.701 204.51 209.596 205.405 210.701 205.405H215.488C216.593 205.405 217.488 204.51 217.488 203.405V198.618C217.488 197.513 216.593 196.618 215.488 196.618Z" fill="#E4E8EB"/>
<path d="M215.488 208.701H210.701C209.596 208.701 208.701 209.596 208.701 210.701V215.488C208.701 216.593 209.596 217.488 210.701 217.488H215.488C216.593 217.488 217.488 216.593 217.488 215.488V210.701C217.488 209.596 216.593 208.701 215.488 208.701Z" fill="#E4E8EB"/>
<path d="M215.488 220.784H210.701C209.596 220.784 208.701 221.679 208.701 222.784V227.571C208.701 228.676 209.596 229.571 210.701 229.571H215.488C216.593 229.571 217.488 228.676 217.488 227.571V222.784C217.488 221.679 216.593 220.784 215.488 220.784Z" fill="#E4E8EB"/>
<path d="M226.472 196.618H221.685C220.58 196.618 219.685 197.513 219.685 198.618V203.405C219.685 204.51 220.58 205.405 221.685 205.405H226.472C227.577 205.405 228.472 204.51 228.472 203.405V198.618C228.472 197.513 227.577 196.618 226.472 196.618Z" fill="#E4E8EB"/>
<path d="M226.472 208.701H221.685C220.58 208.701 219.685 209.596 219.685 210.701V215.488C219.685 216.593 220.58 217.488 221.685 217.488H226.472C227.577 217.488 228.472 216.593 228.472 215.488V210.701C228.472 209.596 227.577 208.701 226.472 208.701Z" fill="#E4E8EB"/>
<path d="M226.472 220.784H221.685C220.58 220.784 219.685 221.679 219.685 222.784V227.571C219.685 228.676 220.58 229.571 221.685 229.571H226.472C227.577 229.571 228.472 228.676 228.472 227.571V222.784C228.472 221.679 227.577 220.784 226.472 220.784Z" fill="#E4E8EB"/>
<path d="M83.6772 220.784H78.8898C77.7853 220.784 76.8898 221.679 76.8898 222.784V227.571C76.8898 228.676 77.7853 229.571 78.8898 229.571H83.6772C84.7818 229.571 85.6772 228.676 85.6772 227.571V222.784C85.6772 221.679 84.7818 220.784 83.6772 220.784Z" fill="#E4E8EB"/>
</g>
<g opacity="0.9">
<path opacity="0.9" d="M239.457 220.898C239.457 215.375 243.934 210.898 249.457 210.898H258.016C263.539 210.898 268.016 215.375 268.016 220.898V240.835C268.016 248.567 261.748 254.835 254.016 254.835H253.457C245.725 254.835 239.457 248.567 239.457 240.835V220.898Z" fill="#4E5A71"/>
<path d="M252.638 217.292C252.638 216.187 251.742 215.292 250.638 215.292H247.654C244.34 215.292 241.654 217.978 241.654 221.292V226.473C241.654 227.577 242.549 228.473 243.654 228.473H250.638C251.742 228.473 252.638 227.577 252.638 226.473V217.292Z" fill="#E4E8EB"/>
<path d="M265.819 221.292C265.819 217.978 263.133 215.292 259.819 215.292H256.835C255.73 215.292 254.835 216.187 254.835 217.292V226.473C254.835 227.577 255.73 228.473 256.835 228.473H263.819C264.923 228.473 265.819 227.577 265.819 226.473V221.292Z" fill="#E4E8EB"/>
</g>
</svg>

<svg width="279" height="269" fill="none" xmlns="http://www.w3.org/2000/svg"><g opacity=".9"><path opacity=".9" d="M251.032 43.937H82.89a6 6 0 00-6 6v113.22a6 6 0 006 6h168.142a6 6 0 006-6V49.937a6 6 0 00-6-6z" fill="#4E5A71"/><path opacity=".9" d="M248.638 56.02H85.284a4 4 0 00-4 4v93.055a4 4 0 004 4h163.354a4 4 0 004-4V60.02a4 4 0 00-4-4z" fill="#8194A1"/><path d="M248.638 56.02H85.284a4 4 0 00-4 4v93.055a4 4 0 004 4h163.354a4 4 0 004-4V60.02a4 4 0 00-4-4z" stroke="#D2DCE3"/><path d="M97.294 120.916v-6.837l9.944-3.277 7.628-2.655v-.226l-7.628-2.656-9.944-3.277v-6.836l25.99 10v5.763l-25.99 10.001zm26.907 13.786v-4.69h26.894v4.69h-26.894z" fill="#E4E8EB"/><path opacity=".9" fill-rule="evenodd" clip-rule="evenodd" d="M188.929 169.158h-43.937v9.886h-13.378a2 2 0 00-2 2v2.59a2 2 0 002 2h70.693a2 2 0 002-2v-2.59a2 2 0 00-2-2h-13.378v-9.886z" fill="#4E5A71"/></g><g opacity=".9"><path opacity=".9" d="M62.906 76.89H13.984a3 3 0 00-3 3v130.205a3 3 0 003 3h48.922a3 3 0 003-3V79.89a3 3 0 00-3-3z" fill="#4E5A71"/><path d="M58.414 87.874H18.477a2 2 0 00-2 2v2.59a2 2 0 002 2h39.937a2 2 0 002-2v-2.59a2 2 0 00-2-2zM58.414 97.76H18.477a2 2 0 00-2 2v.394a2 2 0 002 2h39.937a2 2 0 002-2v-.394a2 2 0 00-2-2zM58.414 112.039H18.477a2 2 0 00-2 2v25.658a2 2 0 002 2h39.937a2 2 0 002-2v-25.658a2 2 0 00-2-2zM29.756 197.716H22.97a1 1 0 00-1 1v6.787a1 1 0 001 1h6.787a1 1 0 001-1v-6.787a1 1 0 00-1-1z" fill="#E4E8EB"/><path opacity=".9" d="M56.118 132.909h-4.59a1 1 0 00-1 1v4.591a1 1 0 001 1h4.59a1 1 0 001-1v-4.591a1 1 0 00-1-1z" fill="#4E5A71"/><path d="M41.839 197.716H35.05a1 1 0 00-1 1v6.787a1 1 0 001 1h6.788a1 1 0 001-1v-6.787a1 1 0 00-1-1z" fill="#E4E8EB"/><path opacity=".9" d="M56.118 115.335h-4.59a1 1 0 00-1 1v4.591a1 1 0 001 1h4.59a1 1 0 001-1v-4.591a1 1 0 00-1-1z" fill="#4E5A71"/><path d="M53.922 197.716h-6.788a1 1 0 00-1 1v6.787a1 1 0 001 1h6.788a1 1 0 001-1v-6.787a1 1 0 00-1-1z" fill="#E4E8EB"/><path opacity=".9" d="M56.118 124.122h-4.59a1 1 0 00-1 1v4.591a1 1 0 001 1h4.59a1 1 0 001-1v-4.591a1 1 0 00-1-1z" fill="#4E5A71"/><path d="M38.445 176.847a6.59 6.59 0 100-13.182 6.59 6.59 0 000 13.182z" fill="#E4E8EB"/></g><g opacity=".6"><path d="M231.063 191.126H74.299a4 4 0 00-4 4v35.937a4 4 0 004 4h156.764a4 4 0 004-4v-35.937a4 4 0 00-4-4z" fill="#4E5A71"/><path d="M94.661 196.618h-4.787a2 2 0 00-2 2v4.787a2 2 0 002 2h4.787a2 2 0 002-2v-4.787a2 2 0 00-2-2zM94.661 208.701h-4.787a2 2 0 00-2 2v4.787a2 2 0 002 2h4.787a2 2 0 002-2v-4.787a2 2 0 00-2-2zM94.661 220.784h-4.787a2 2 0 00-2 2v4.787a2 2 0 002 2h4.787a2 2 0 002-2v-4.787a2 2 0 00-2-2zM83.677 196.618H78.89a2 2 0 00-2 2v4.787a2 2 0 002 2h4.787a2 2 0 002-2v-4.787a2 2 0 00-2-2zM83.677 208.701H78.89a2 2 0 00-2 2v4.787a2 2 0 002 2h4.787a2 2 0 002-2v-4.787a2 2 0 00-2-2zM160.567 196.618h-4.787a2 2 0 00-2 2v4.787a2 2 0 002 2h4.787a2 2 0 002-2v-4.787a2 2 0 00-2-2zM160.567 208.701h-4.787a2 2 0 00-2 2v4.787a2 2 0 002 2h4.787a2 2 0 002-2v-4.787a2 2 0 00-2-2zM127.614 196.618h-4.787a2 2 0 00-2 2v4.787a2 2 0 002 2h4.787a2 2 0 002-2v-4.787a2 2 0 00-2-2zM127.614 208.701h-4.787a2 2 0 00-2 2v4.787a2 2 0 002 2h4.787a2 2 0 002-2v-4.787a2 2 0 00-2-2zM193.519 196.618h-4.787a2 2 0 00-2 2v4.787a2 2 0 002 2h4.787a2 2 0 002-2v-4.787a2 2 0 00-2-2zM193.519 208.701h-4.787a2 2 0 00-2 2v4.787a2 2 0 002 2h4.787a2 2 0 002-2v-4.787a2 2 0 00-2-2zM105.646 196.618h-4.788a2 2 0 00-2 2v4.787a2 2 0 002 2h4.788a2 2 0 002-2v-4.787a2 2 0 00-2-2zM105.646 208.701h-4.788a2 2 0 00-2 2v4.787a2 2 0 002 2h4.788a2 2 0 002-2v-4.787a2 2 0 00-2-2zM204.504 220.784H100.858a2 2 0 00-2 2v4.787a2 2 0 002 2h103.646a2 2 0 002-2v-4.787a2 2 0 00-2-2zM171.551 196.618h-4.787a2 2 0 00-2 2v4.787a2 2 0 002 2h4.787a2 2 0 002-2v-4.787a2 2 0 00-2-2zM171.551 208.701h-4.787a2 2 0 00-2 2v4.787a2 2 0 002 2h4.787a2 2 0 002-2v-4.787a2 2 0 00-2-2zM138.598 196.618h-4.787a2 2 0 00-2 2v4.787a2 2 0 002 2h4.787a2 2 0 002-2v-4.787a2 2 0 00-2-2zM138.598 208.701h-4.787a2 2 0 00-2 2v4.787a2 2 0 002 2h4.787a2 2 0 002-2v-4.787a2 2 0 00-2-2zM204.504 196.618h-4.787a2 2 0 00-2 2v4.787a2 2 0 002 2h4.787a2 2 0 002-2v-4.787a2 2 0 00-2-2zM204.504 208.701h-4.787a2 2 0 00-2 2v4.787a2 2 0 002 2h4.787a2 2 0 002-2v-4.787a2 2 0 00-2-2zM116.63 196.618h-4.787a2 2 0 00-2 2v4.787a2 2 0 002 2h4.787a2 2 0 002-2v-4.787a2 2 0 00-2-2zM116.63 208.701h-4.787a2 2 0 00-2 2v4.787a2 2 0 002 2h4.787a2 2 0 002-2v-4.787a2 2 0 00-2-2zM182.535 196.618h-4.787a2 2 0 00-2 2v4.787a2 2 0 002 2h4.787a2 2 0 002-2v-4.787a2 2 0 00-2-2zM182.535 208.701h-4.787a2 2 0 00-2 2v4.787a2 2 0 002 2h4.787a2 2 0 002-2v-4.787a2 2 0 00-2-2zM149.582 196.618h-4.787a2 2 0 00-2 2v4.787a2 2 0 002 2h4.787a2 2 0 002-2v-4.787a2 2 0 00-2-2zM149.582 208.701h-4.787a2 2 0 00-2 2v4.787a2 2 0 002 2h4.787a2 2 0 002-2v-4.787a2 2 0 00-2-2zM215.488 196.618h-4.787a2 2 0 00-2 2v4.787a2 2 0 002 2h4.787a2 2 0 002-2v-4.787a2 2 0 00-2-2zM215.488 208.701h-4.787a2 2 0 00-2 2v4.787a2 2 0 002 2h4.787a2 2 0 002-2v-4.787a2 2 0 00-2-2zM215.488 220.784h-4.787a2 2 0 00-2 2v4.787a2 2 0 002 2h4.787a2 2 0 002-2v-4.787a2 2 0 00-2-2zM226.472 196.618h-4.787a2 2 0 00-2 2v4.787a2 2 0 002 2h4.787a2 2 0 002-2v-4.787a2 2 0 00-2-2zM226.472 208.701h-4.787a2 2 0 00-2 2v4.787a2 2 0 002 2h4.787a2 2 0 002-2v-4.787a2 2 0 00-2-2zM226.472 220.784h-4.787a2 2 0 00-2 2v4.787a2 2 0 002 2h4.787a2 2 0 002-2v-4.787a2 2 0 00-2-2zM83.677 220.784H78.89a2 2 0 00-2 2v4.787a2 2 0 002 2h4.787a2 2 0 002-2v-4.787a2 2 0 00-2-2z" fill="#E4E8EB"/></g><g opacity=".9"><path opacity=".9" d="M239.457 220.898c0-5.523 4.477-10 10-10h8.559c5.523 0 10 4.477 10 10v19.937c0 7.732-6.268 14-14 14h-.559c-7.732 0-14-6.268-14-14v-19.937z" fill="#4E5A71"/><path d="M252.638 217.292a2 2 0 00-2-2h-2.984a6 6 0 00-6 6v5.181a2 2 0 002 2h6.984a2 2 0 002-2v-9.181zM265.819 221.292a6 6 0 00-6-6h-2.984a2 2 0 00-2 2v9.181a2 2 0 002 2h6.984a2 2 0 002-2v-5.181z" fill="#E4E8EB"/></g></svg>
